static/logos/fellow-wordmark-color.svg

<svg width="100" height="27" viewBox="0 0 100 27" fill="none" xmlns="http://www.w3.org/2000/svg">
<g clip-path="url(#clip0_1_2780)">
<path d="M1.08805e-05 3.94637C-0.000874293 3.80919 0.0522811 3.67717 0.147978 3.57889C0.195094 3.53104 0.251298 3.49308 0.313286 3.46725C0.375275 3.44142 0.4418 3.42824 0.508954 3.42848H11.6114C11.6785 3.42845 11.7449 3.44182 11.8067 3.46778C11.8685 3.49375 11.9246 3.5318 11.9715 3.5797C12.0667 3.67726 12.1203 3.80897 12.1203 3.94637V6.92279C12.1205 7.0595 12.0671 7.19083 11.9715 7.28864C11.9246 7.33669 11.8687 7.37489 11.8068 7.401C11.745 7.4271 11.6785 7.4406 11.6114 7.44068H4.18131V11.3756H10.2886C10.4226 11.3797 10.5499 11.4353 10.6439 11.5309C10.7389 11.6281 10.7938 11.7576 10.7976 11.8935V14.8691C10.7934 15.0049 10.7383 15.1341 10.6431 15.2309C10.5496 15.3269 10.4226 15.3832 10.2886 15.3878H4.18131V22.0203C4.17746 22.156 4.12259 22.2852 4.02765 22.3821C3.93379 22.4781 3.8065 22.534 3.67237 22.5382H0.508954C0.442135 22.5389 0.375879 22.5259 0.31414 22.5004C0.252401 22.4749 0.196442 22.4371 0.149604 22.3894C0.101886 22.3415 0.0641101 22.2845 0.0384402 22.2219C0.0127705 22.1592 -0.000288667 22.0921 1.08805e-05 22.0244V3.94637ZM14.9089 3.94637C14.9089 3.80897 14.9626 3.67726 15.0585 3.58052C15.1054 3.53256 15.1612 3.49442 15.2229 3.46831C15.2846 3.44221 15.3509 3.42867 15.4179 3.42848H26.5211C26.5885 3.42795 26.6552 3.441 26.7174 3.46683C26.7795 3.49268 26.8359 3.53078 26.8829 3.57889C26.9309 3.62726 26.9689 3.68461 26.9947 3.74766C27.0205 3.81072 27.0337 3.87824 27.0333 3.94637V6.92279C27.0333 7.06051 26.9793 7.19274 26.8829 7.29109C26.8354 7.33883 26.7789 7.37665 26.7167 7.40234C26.6544 7.42802 26.5876 7.44105 26.5203 7.44068H19.0943V10.8276H25.2016C25.3364 10.8321 25.4644 10.888 25.5593 10.9837C25.6559 11.0806 25.7127 11.2098 25.7187 11.3463V14.322C25.7189 14.4594 25.6655 14.5915 25.5699 14.6902C25.5231 14.7385 25.4672 14.7771 25.4053 14.8036C25.3435 14.8301 25.277 14.8441 25.2098 14.8447H19.1024V18.5301H26.5211C26.5885 18.5296 26.6552 18.5426 26.7174 18.5685C26.7795 18.5943 26.8359 18.6324 26.8829 18.6805C26.931 18.7289 26.9689 18.7862 26.9948 18.8493C27.0206 18.9124 27.0337 18.9798 27.0333 19.048V22.0244C27.0325 22.1614 26.9782 22.2927 26.8821 22.3902C26.8347 22.4376 26.7784 22.475 26.7164 22.5003C26.6545 22.5257 26.5881 22.5386 26.5211 22.5382H15.4171C15.3502 22.5381 15.2839 22.5247 15.2222 22.4988C15.1605 22.4728 15.1046 22.4348 15.0577 22.387C14.9617 22.2891 14.908 22.1575 14.9081 22.0203V3.94718L14.9089 3.94637ZM30.413 3.94637C30.4119 3.80915 30.4651 3.67708 30.561 3.57889C30.6081 3.53107 30.6643 3.49314 30.7263 3.46731C30.7883 3.44149 30.8548 3.42829 30.9219 3.42848H34.1138C34.2472 3.43336 34.374 3.48946 34.4683 3.58539C34.563 3.68224 34.6181 3.81099 34.6228 3.94637V18.5301H40.9984C41.0654 18.5301 41.1319 18.5434 41.1937 18.5694C41.2555 18.5954 41.3116 18.6334 41.3585 18.6813C41.4537 18.7789 41.5073 18.9106 41.5073 19.048V22.0244C41.5063 22.1605 41.4524 22.2908 41.3569 22.3878C41.3102 22.4353 41.2545 22.473 41.1931 22.4989C41.1317 22.5246 41.0658 22.5381 40.9992 22.5382H30.9211C30.8543 22.5389 30.788 22.5259 30.7263 22.5004C30.6646 22.4749 30.6086 22.4371 30.5618 22.3894C30.5141 22.3415 30.4763 22.2845 30.4506 22.2219C30.4249 22.1592 30.4119 22.0921 30.4122 22.0244V3.94637H30.413ZM66.8471 11.2382C66.9372 11.3631 67.0707 11.4498 67.2215 11.4813C67.3721 11.5129 67.5292 11.4871 67.6618 11.4089C69.5911 10.2594 76.248 6.49189 78.2472 2.7358C79.9366 -0.434935 76.3984 -0.165829 74.3658 0.219536C73.4729 0.393386 72.635 0.780223 71.9236 1.34718C70.0463 2.83987 67.0992 5.6049 66.7284 10.7781C66.7138 10.9407 66.7553 11.1033 66.8463 11.2382H66.8471ZM54.8984 18.5797C54.8306 18.5482 54.7569 18.5313 54.6821 18.5301H48.2984V3.94637C48.2946 3.81073 48.2397 3.68153 48.1447 3.58458C48.0509 3.48868 47.9236 3.43275 47.7894 3.42848H44.5976C44.5305 3.42845 44.4641 3.44182 44.4023 3.46778C44.3404 3.49375 44.2844 3.5318 44.2374 3.5797C44.1417 3.6777 44.0883 3.80937 44.0886 3.94637V22.0244C44.0895 22.1605 44.1435 22.2909 44.239 22.3878C44.2858 22.4353 44.3415 22.473 44.4028 22.4989C44.4642 22.5246 44.5302 22.5381 44.5967 22.5382H50.6593C51.8907 21.0365 53.3162 19.705 54.8984 18.5789V18.5797ZM74.6845 8.80082C73.4572 9.56716 72.1937 10.274 70.8984 10.9187C71.2287 11.7264 71.3628 12.601 71.2895 13.4706C71.2163 14.3402 70.938 15.18 70.4772 15.9211C70.0193 16.6563 69.3906 17.2698 68.6447 17.7098C67.9039 18.1468 67.0673 18.3955 66.2081 18.4342C65.9591 19.9455 65.445 21.401 64.6894 22.7333C65.1065 22.7878 65.5268 22.8155 65.9471 22.8163C67.2163 22.8244 68.4748 22.5772 69.6488 22.0878C70.8264 21.5959 71.8939 20.8736 72.7886 19.9634C73.6891 19.047 74.4002 17.9621 74.8813 16.7707C75.365 15.5756 75.6106 14.2959 75.6049 13.0041C75.6049 11.5512 75.2902 10.1163 74.6845 8.80082ZM61.0171 15.0764C60.7468 14.4188 60.6087 13.7143 60.6106 13.0033C60.6106 11.5711 61.1647 10.1946 62.1569 9.16179C63.1386 8.13992 64.4857 7.54928 65.9024 7.51953C66.2045 6.02648 66.755 4.59469 67.5309 3.28377C65.7468 2.97839 63.9126 3.19085 62.2455 3.89596C61.0706 4.39376 60.0065 5.12065 59.1154 6.03417C58.2181 6.95433 57.5104 8.04188 57.0325 9.23496C56.5523 10.4332 56.3098 11.7133 56.3187 13.0041C56.3159 14.4055 56.6058 15.792 57.1699 17.0748C58.4138 16.335 59.6984 15.6675 61.0171 15.0764ZM65.0845 14.7325C64.9937 14.6085 64.8599 14.5228 64.7093 14.4921C64.5587 14.4615 64.402 14.4881 64.2699 14.5667C62.3406 15.7106 55.839 19.5415 53.839 23.2715C52.1496 26.4431 55.6919 26.174 57.7236 25.7886C58.6171 25.6186 59.4554 25.2329 60.1658 24.665C61.6417 23.5524 62.8558 22.1298 63.7228 20.4976C64.5957 18.8559 65.1032 17.0449 65.2106 15.1886C65.2237 15.0265 65.1791 14.8649 65.0845 14.7325ZM99.3894 3.42848H96.2504C96.1423 3.43669 96.039 3.47718 95.9537 3.54474C95.8675 3.6132 95.8041 3.70535 95.7699 3.80978L93.4618 13.0659H93.3561L89.1992 3.46995C89.1658 3.37664 89.1024 3.29657 89.0203 3.24149C88.9382 3.18698 88.8415 3.16071 88.7431 3.1667H88.2585C88.1642 3.17135 88.0732 3.20209 87.9959 3.25551C87.9179 3.30891 87.8569 3.38288 87.8187 3.46913L83.6455 13.0659H83.5398L81.2358 3.80978C80.212 4.90813 79.0919 5.91243 77.8886 6.81059L82.2041 22.435C82.2341 22.5417 82.2967 22.6364 82.3829 22.7057C82.4691 22.7742 82.5748 22.8131 82.6845 22.8163H83.1163C83.2114 22.8098 83.3032 22.779 83.3837 22.7268C83.4634 22.6746 83.5284 22.6026 83.5724 22.5179L88.4577 11.3455H88.535L93.4374 22.5382C93.4813 22.6233 93.5455 22.6956 93.626 22.748C93.7057 22.8002 93.7984 22.8308 93.8935 22.8366H94.3325C94.4439 22.8348 94.5512 22.7966 94.639 22.7277C94.7268 22.6588 94.7894 22.5631 94.8171 22.4553L99.8862 4.10409C99.9138 4.04559 99.9293 3.98209 99.9317 3.91741C99.9341 3.85274 99.9236 3.78823 99.9008 3.72777C99.8772 3.6673 99.8423 3.61214 99.7976 3.5656C99.7528 3.51905 99.6984 3.48209 99.639 3.45694C99.5602 3.42444 99.474 3.41459 99.3894 3.42848ZM65.9675 14.2309C66.6423 14.2309 67.1894 13.674 67.1894 12.987C67.1894 12.3008 66.6423 11.7431 65.9675 11.7431C65.2927 11.7431 64.7463 12.3008 64.7463 12.987C64.7463 13.674 65.2935 14.2309 65.9675 14.2309Z" fill="black"/>
</g>
<defs>
<clipPath id="clip0_1_2780">
<rect width="100" height="26.0163" fill="white"/>
</clipPath>
</defs>
</svg>

<svg xmlns="http://www.w3.org/2000/svg" width="237.037" height="64" fill="none" viewBox="0 0 100 27"><g clip-path="url(#a)"><path fill="#000" d="M0 3.946a.522.522 0 0 1 .313-.479.504.504 0 0 1 .196-.039h11.102a.504.504 0 0 1 .36.152c.096.097.15.229.15.366v2.977a.522.522 0 0 1-.314.478.504.504 0 0 1-.196.04h-7.43v3.935h6.108a.52.52 0 0 1 .355.155.54.54 0 0 1 .154.362v2.976a.54.54 0 0 1-.155.362.52.52 0 0 1-.354.157H4.18v6.632a.539.539 0 0 1-.153.362.52.52 0 0 1-.356.156H.51a.497.497 0 0 1-.36-.149.513.513 0 0 1-.149-.365V3.946Zm14.909 0a.52.52 0 0 1 .314-.478.504.504 0 0 1 .195-.04H26.52a.501.501 0 0 1 .474.32c.025.063.039.13.038.198v2.977a.508.508 0 0 1-.513.518h-7.426v3.387h6.108c.134.004.262.06.357.156a.547.547 0 0 1 .16.362v2.976a.528.528 0 0 1-.314.482.508.508 0 0 1-.195.04h-6.108v3.686h7.42a.5.5 0 0 1 .36.15.518.518 0 0 1 .151.368v2.976a.526.526 0 0 1-.15.366.503.503 0 0 1-.362.148H15.417a.506.506 0 0 1-.36-.151.523.523 0 0 1-.149-.367V3.947Zm15.504 0a.52.52 0 0 1 .313-.479.505.505 0 0 1 .196-.039h3.192c.133.005.26.061.354.157.095.097.15.226.155.361V18.53h6.375a.504.504 0 0 1 .36.151c.096.098.15.23.15.367v2.976a.523.523 0 0 1-.315.475.504.504 0 0 1-.194.04H30.921a.497.497 0 0 1-.36-.15.514.514 0 0 1-.149-.365V3.946h.001Zm36.434 7.292a.617.617 0 0 0 .815.17c1.93-1.149 8.586-4.916 10.585-8.672 1.69-3.17-1.849-2.902-3.881-2.516-.893.173-1.731.56-2.442 1.127-1.878 1.493-4.825 4.258-5.196 9.431a.71.71 0 0 0 .118.46h.001ZM54.898 18.58a.534.534 0 0 0-.216-.05h-6.384V3.946a.538.538 0 0 0-.153-.361.52.52 0 0 0-.356-.157h-3.191a.504.504 0 0 0-.36.152.523.523 0 0 0-.15.366v18.078a.523.523 0 0 0 .315.475c.061.026.127.04.194.04h6.062a21.919 21.919 0 0 1 4.24-3.96ZM74.684 8.8a45.042 45.042 0 0 1-3.786 2.119 5.518 5.518 0 0 1-.42 5.002 5.377 5.377 0 0 1-1.833 1.789 5.262 5.262 0 0 1-2.437.724 12.998 12.998 0 0 1-1.519 4.3c.418.054.838.081 1.258.082a9.462 9.462 0 0 0 3.702-.728 9.581 9.581 0 0 0 3.14-2.125 9.78 9.78 0 0 0 2.092-3.192 9.923 9.923 0 0 0 .724-3.767c0-1.453-.315-2.888-.92-4.203Zm-13.667 6.276a5.415 5.415 0 0 1-.406-2.073c0-1.432.554-2.808 1.546-3.841a5.35 5.35 0 0 1 3.745-1.642 13.619 13.619 0 0 1 1.629-4.236 9.468 9.468 0 0 0-5.286.612 9.61 9.61 0 0 0-3.13 2.138 9.809 9.809 0 0 0-2.083 3.201 9.948 9.948 0 0 0-.713 3.77 10.063 10.063 0 0 0 .85 4.07 37.672 37.672 0 0 1 3.848-1.999Zm4.068-.344a.618.618 0 0 0-.815-.165c-1.93 1.144-8.431 4.974-10.431 8.704-1.69 3.172 1.853 2.903 3.885 2.518a5.582 5.582 0 0 0 2.442-1.124 12.65 12.65 0 0 0 3.557-4.167 12.895 12.895 0 0 0 1.488-5.31.69.69 0 0 0-.126-.456ZM99.389 3.428H96.25a.544.544 0 0 0-.48.382l-2.308 9.256h-.106L89.2 3.47a.465.465 0 0 0-.179-.229.45.45 0 0 0-.277-.074h-.484a.506.506 0 0 0-.44.302l-4.174 9.597h-.105L81.236 3.81a25.103 25.103 0 0 1-3.347 3l4.315 15.625c.03.107.093.201.179.27a.509.509 0 0 0 .302.111h.431a.562.562 0 0 0 .456-.298l4.886-11.173h.077l4.902 11.193a.55.55 0 0 0 .457.299h.438a.51.51 0 0 0 .485-.382l5.07-18.35a.48.48 0 0 0-.248-.648.459.459 0 0 0-.25-.029ZM65.968 14.231c.674 0 1.221-.557 1.221-1.244 0-.686-.547-1.244-1.221-1.244-.675 0-1.222.558-1.222 1.244 0 .687.547 1.244 1.222 1.244Z"/></g><defs><clipPath id="a"><path fill="#fff" d="M0 0h100v26.016H0z"/></clipPath></defs></svg>
